derivative/sync bind.svg

<?xml version="1.0" encoding="UTF-8" standalone="no"?>
<svg
   aria-hidden="true"
   focusable="false"
   data-prefix="fas"
   data-icon="sync-alt"
   role="img"
   viewBox="0 0 512 512"
   class="svg-inline--fa fa-sync-alt fa-w-16 fa-7x"
   version="1.1"
   id="svg4"
   sodipodi:docname="sync bind.svg"
   inkscape:version="1.1 (c68e22c387, 2021-05-23)"
   xmlns:inkscape="http://www.inkscape.org/namespaces/inkscape"
   xmlns:sodipodi="http://sodipodi.sourceforge.net/DTD/sodipodi-0.dtd"
   xmlns="http://www.w3.org/2000/svg"
   xmlns:svg="http://www.w3.org/2000/svg">
  <defs
     id="defs8" />
  <sodipodi:namedview
     id="namedview6"
     pagecolor="#ffffff"
     bordercolor="#666666"
     borderopacity="1.0"
     inkscape:pageshadow="2"
     inkscape:pageopacity="0.0"
     inkscape:pagecheckerboard="0"
     showgrid="false"
     inkscape:zoom="0.45229975"
     inkscape:cx="256.46709"
     inkscape:cy="255.36163"
     inkscape:window-width="1920"
     inkscape:window-height="1017"
     inkscape:window-x="0"
     inkscape:window-y="30"
     inkscape:window-maximized="1"
     inkscape:current-layer="svg4"
     inkscape:snap-others="false"
     inkscape:object-nodes="false"
     inkscape:snap-nodes="false"
     inkscape:snap-global="false" />
  <path
     id="path2"
     style="stroke-width:0.884661"
     class=""
     d="M 227.39648,8 C 120.18704,8 30.942196,84.897347 11.800781,186.54492 c -1.227025,6.51907 3.812123,12.54102 10.445313,12.54102 h 50.693359 c 4.891293,0 9.117656,-3.34931 10.306641,-8.09375 C 99.579595,125.81743 158.73763,78.833594 227.26172,78.773438 c 38.07582,-0.03362 73.96677,14.160838 101.62305,40.056642 l -36.93555,36.93359 c -13.37519,13.37607 -3.90216,36.2461 15.01367,36.2461 h 118.59766 c 11.72619,0 21.23047,-9.50624 21.23047,-21.23243 V 52.181641 c 0,-18.915827 -22.86894,-28.388866 -36.24414,-15.013672 L 378.95117,68.763672 C 339.56251,31.12222 286.18045,8 227.39648,8 Z M 29.232422,262.7832 C 17.506237,262.7832 8,272.28749 8,284.01367 v 118.59766 c 0,18.91582 22.868947,28.38887 36.244141,15.01367 l 31.595703,-31.5957 c 32.102026,30.67804 73.503856,51.70141 119.544926,58.43359 -0.007,-2.2688 -0.0297,-4.53815 0.0137,-6.80664 -0.0783,-5.58428 1.45807,-11.16143 4.36133,-15.92969 4.59684,-7.72233 12.68868,-13.30876 21.60546,-14.62109 v -15.75586 c 0.0683,-5.13115 -0.29654,-10.36889 0.44336,-15.45899 -35.93778,-1.32098 -69.63556,-15.33396 -95.90039,-39.92773 l 36.9336,-36.93555 c 13.37519,-13.37608 3.90215,-36.24414 -15.01368,-36.24414 z"
     sodipodi:nodetypes="scssccccssssscssssscccccccccss" />
  <path
     id="path2-3"
     d="m 329.43093,259.24021 c -8.20415,0 -14.85754,6.6534 -14.85754,14.85755 v 44.57263 c 0,8.20414 6.65339,14.85754 14.85754,14.85754 h 18.57193 v 29.71509 h -93.59781 c -9.83384,0 -17.83377,7.99994 -17.83377,17.83377 v 41.59641 h -11.14315 c -8.20416,0 -14.85755,6.6534 -14.85755,14.85755 v 44.57263 c 0,8.20414 6.65339,14.85754 14.85755,14.85754 h 44.57263 c 8.20414,0 14.85754,-6.6534 14.85754,-14.85754 v -44.57263 c 0,-8.20415 -6.6534,-14.85755 -14.85754,-14.85755 H 258.8576 v -37.14387 h 89.14526 V 422.6732 H 336.8597 c -8.20414,0 -14.85754,6.6534 -14.85754,14.85755 v 44.57263 c 0,8.20414 6.6534,14.85754 14.85754,14.85754 h 44.57264 c 8.20415,0 14.85754,-6.6534 14.85754,-14.85754 v -44.57263 c 0,-8.20415 -6.65339,-14.85755 -14.85754,-14.85755 h -11.14316 v -37.14387 h 89.14527 v 37.14387 h -11.14316 c -8.20415,0 -14.85754,6.6534 -14.85754,14.85755 v 44.57263 c 0,8.20414 6.65339,14.85754 14.85754,14.85754 h 44.57263 c 8.20415,0 14.85755,-6.6534 14.85755,-14.85754 v -44.57263 c 0,-8.20415 -6.6534,-14.85755 -14.85755,-14.85755 h -11.14316 v -41.59641 c 0,-9.82919 -7.99993,-17.83377 -17.83376,-17.83377 h -93.59782 v -29.71509 h 18.57194 c 8.20414,0 14.85753,-6.6534 14.85753,-14.85754 v -44.57263 c 0,-8.20415 -6.65339,-14.85755 -14.85753,-14.85755 z"
     style="stroke-width:0.464298" />
</svg>

<?xml version="1.0" encoding="UTF-8" standalone="no"?>
<svg
   aria-hidden="true"
   focusable="false"
   data-prefix="fas"
   data-icon="sync-alt"
   role="img"
   viewBox="0 0 512 512"
   class="svg-inline--fa fa-sync-alt fa-w-16 fa-7x"
   version="1.1"
   id="svg4"
   sodipodi:docname="sync bind.svg"
   inkscape:version="1.1 (c68e22c387, 2021-05-23)"
   xmlns:inkscape="http://www.inkscape.org/namespaces/inkscape"
   xmlns:sodipodi="http://sodipodi.sourceforge.net/DTD/sodipodi-0.dtd"
   xmlns="http://www.w3.org/2000/svg"
   xmlns:svg="http://www.w3.org/2000/svg">
  <defs
     id="defs8" />
  <sodipodi:namedview
     id="namedview6"
     pagecolor="#ffffff"
     bordercolor="#666666"
     borderopacity="1.0"
     inkscape:pageshadow="2"
     inkscape:pageopacity="0.0"
     inkscape:pagecheckerboard="0"
     showgrid="false"
     inkscape:zoom="0.45229975"
     inkscape:cx="258.67801"
     inkscape:cy="255.36163"
     inkscape:window-width="1920"
     inkscape:window-height="1017"
     inkscape:window-x="0"
     inkscape:window-y="30"
     inkscape:window-maximized="1"
     inkscape:current-layer="svg4"
     inkscape:snap-others="false"
     inkscape:object-nodes="false"
     inkscape:snap-nodes="false"
     inkscape:snap-global="false" />
  <path
     id="path2"
     style="stroke-width:0.884661"
     class=""
     d="M 227.39648 8 C 120.18704 8 30.942196 84.897349 11.800781 186.54492 C 10.573756 193.06399 15.612904 199.08594 22.246094 199.08594 L 72.939453 199.08594 C 77.830746 199.08594 82.057109 195.73663 83.246094 190.99219 C 99.579595 125.81743 158.73763 78.833594 227.26172 78.773438 C 265.33754 78.739818 301.22849 92.934274 328.88477 118.83008 L 291.94922 155.76367 C 278.57403 169.13974 288.04706 192.00977 306.96289 192.00977 L 425.56055 192.00977 C 437.28674 192.00977 446.79102 182.50353 446.79102 170.77734 L 446.79102 52.181641 C 446.79102 33.265814 423.92207 23.792775 410.54688 37.167969 L 378.95117 68.763672 C 339.56251 31.12222 286.18045 8 227.39648 8 z M 329.43164 259.24023 C 321.22749 259.24023 314.57422 265.89351 314.57422 274.09766 L 314.57422 318.66992 C 314.57422 326.87406 321.22749 333.52734 329.43164 333.52734 L 348.00195 333.52734 L 348.00195 363.24219 L 254.4043 363.24219 C 244.57046 363.24219 236.57031 371.24234 236.57031 381.07617 L 236.57031 422.67383 L 225.42773 422.67383 C 217.22357 422.67383 210.57031 429.3271 210.57031 437.53125 L 210.57031 482.10352 C 210.57031 490.30766 217.22357 496.96094 225.42773 496.96094 L 270 496.96094 C 278.20414 496.96094 284.85742 490.30766 284.85742 482.10352 L 284.85742 437.53125 C 284.85742 429.3271 278.20414 422.67383 270 422.67383 L 258.85742 422.67383 L 258.85742 385.5293 L 348.00195 385.5293 L 348.00195 422.67383 L 336.85938 422.67383 C 328.65524 422.67383 322.00195 429.3271 322.00195 437.53125 L 322.00195 482.10352 C 322.00195 490.30766 328.65524 496.96094 336.85938 496.96094 L 381.43164 496.96094 C 389.63579 496.96094 396.28906 490.30766 396.28906 482.10352 L 396.28906 437.53125 C 396.28906 429.3271 389.63579 422.67383 381.43164 422.67383 L 370.28906 422.67383 L 370.28906 385.5293 L 459.43359 385.5293 L 459.43359 422.67383 L 448.29102 422.67383 C 440.08687 422.67383 433.43359 429.3271 433.43359 437.53125 L 433.43359 482.10352 C 433.43359 490.30766 440.08687 496.96094 448.29102 496.96094 L 492.86328 496.96094 C 501.06743 496.96094 507.7207 490.30766 507.7207 482.10352 L 507.7207 437.53125 C 507.7207 429.3271 501.06743 422.67383 492.86328 422.67383 L 481.7207 422.67383 L 481.7207 381.07617 C 481.7207 371.24698 473.72055 363.24219 463.88672 363.24219 L 370.28906 363.24219 L 370.28906 333.52734 L 388.86133 333.52734 C 397.06547 333.52734 403.71875 326.87406 403.71875 318.66992 L 403.71875 274.09766 C 403.71875 265.89351 397.06547 259.24023 388.86133 259.24023 L 329.43164 259.24023 z M 29.232422 262.7832 C 17.506237 262.7832 8 272.28749 8 284.01367 L 8 402.61133 C 8 421.52715 30.868947 431.0002 44.244141 417.625 L 75.839844 386.0293 C 107.94187 416.70734 149.3437 437.73071 195.38477 444.46289 C 195.37777 442.19409 195.35504 439.92474 195.39844 437.65625 C 195.32014 432.07197 196.85651 426.49482 199.75977 421.72656 C 204.35661 414.00423 212.44845 408.4178 221.36523 407.10547 L 221.36523 391.34961 C 221.43353 386.21846 221.06869 380.98073 221.80859 375.89062 C 185.87081 374.56964 152.17303 360.55666 125.9082 335.96289 L 162.8418 299.02734 C 176.21699 285.65126 166.74396 262.7832 147.82812 262.7832 L 29.232422 262.7832 z " />
</svg>
